X:179
T:Wanton Lass THO4.179, The
M:C
L:1/8
Z:vmp. Peter Dunk 2010/11.from a transcription by Fynn Titford-Mock 2007
B:Thompson's Compleat Collection of 200 Favourite Country Dances Volume IV.
Q:1/4=120
K:G
gGgg gg gf/e/|ddd^d eE E2|\
ce ed/c/ Bd dc/B/|{c/}BA/G/ DE/F/ G2 [G2G,2]:|
Bddd dd dc/B/|cc/d/ ef/g/ aA A2|\
L:1/16
gbag fagf egfe dedc|BdeB AcBA G4 [G4G,4]:|
